brandFactory_export/3.Masa/Bateria_Cargando_3Masa.svg

<?xml version="1.0" encoding="UTF-8"?>
<svg width="24px" height="24px" viewBox="0 0 24 24" version="1.1" xmlns="http://www.w3.org/2000/svg" xmlns:xlink="http://www.w3.org/1999/xlink">
    <title>3.Masa/Bateria_Cargando_3Masa</title>
    <g id="Symbols" stroke="none" stroke-width="1" fill="none" fill-rule="evenodd">
        <g id="3.Masa/Bateria_Cargando_3Masa" fill="#5CB615" fill-rule="nonzero">
            <path d="M18.2605042,19.6067227 L18.2605042,6.57478992 C18.2605042,5.68403361 18.0621849,5.05546218 17.6521008,4.65210084 C17.2420168,4.24537815 16.6033613,4.05042017 15.6957983,4.05042017 L9.08739496,4.05042017 C8.19327731,4.05042017 7.55462185,4.25210084 7.13781513,4.66890756 C6.72436975,5.0789916 6.52268908,5.70420168 6.52268908,6.57815126 L6.52268908,19.6067227 C6.52268908,20.5042017 6.7210084,21.1394958 7.13445378,21.5394958 C7.54117647,21.9394958 8.17983193,22.1310924 9.08739496,22.1310924 L15.6991597,22.1310924 C16.6033613,22.1310924 17.2453782,21.9394958 17.6521008,21.5394958 C18.0621849,21.1394958 18.2605042,20.5042017 18.2605042,19.6067227 Z M10.6705882,1.6 C10.5831933,1.68403361 10.5663866,1.8789916 10.5663866,2.02352941 L10.5663866,2.55798319 L14.2235294,2.55798319 L14.2235294,2.02352941 C14.2235294,1.89915966 14.210084,1.68067227 14.1226891,1.59327731 C14.0319328,1.50588235 13.810084,1.49243697 13.6857143,1.49243697 L11.107563,1.49243697 C10.9529412,1.49243697 10.7579832,1.5092437 10.6705882,1.6 L10.6705882,1.6 Z M18.7243697,3.6 C19.4302521,4.29915966 19.7731092,5.27058824 19.7731092,6.57478992 L19.7731092,19.6067227 C19.7731092,20.9243697 19.4268908,21.902521 18.7142857,22.5983193 C18.0084034,23.287395 17.0201681,23.6235294 15.6957983,23.6235294 L9.08739496,23.6235294 C7.76302521,23.6235294 6.77478992,23.287395 6.06890756,22.5983193 C5.35630252,21.8991597 5.01008403,20.9210084 5.01008403,19.6033613 L5.01008403,6.57478992 C5.01008403,5.28739496 5.35294118,4.31932773 6.05882353,3.61680672 C6.76806723,2.91092437 7.74957983,2.56470588 9.05042017,2.55798319 L9.05042017,2.02352941 C9.05042017,1.40504202 9.23193277,0.907563025 9.59495798,0.54789916 C9.96134454,0.18487395 10.4689076,0 11.1008403,0 L13.6789916,0 C14.3210084,0 14.8285714,0.181512605 15.1882353,0.541176471 C15.5478992,0.897478992 15.7294118,1.39831933 15.7294118,2.02352941 L15.7294118,2.55798319 C17.0436975,2.56470588 18.0252101,2.90420168 18.7243697,3.6 Z M15.6756303,10.6084034 C15.9109244,10.5747899 16.1428571,10.6689076 16.287395,10.8571429 C16.4319328,11.0420168 16.4621849,11.2907563 16.3647059,11.5058824 L12.8655462,19.4823529 C12.7411765,19.7647059 12.4352941,19.9226891 12.1294118,19.8588235 C11.8268908,19.7983193 11.6084034,19.5327731 11.6084034,19.2235294 L11.6151261,14.6588235 L9.10756303,15.0016807 C8.87563025,15.0386555 8.64033613,14.9445378 8.49915966,14.7563025 C8.35462185,14.5747899 8.32436975,14.3294118 8.41176471,14.1142857 L11.6957983,6.25546218 C11.8168067,5.96638655 12.1260504,5.80504202 12.4352941,5.86890756 C12.7411765,5.92941176 12.9596639,6.19831933 12.9596639,6.50756303 L12.902521,10.9915966 L15.6756303,10.6084034 L15.6756303,10.6084034 Z" id="Bateria_Cargando_3Masa"></path>
        </g>
    </g>
</svg>

<svg width="24" height="24" viewBox="0 0 24 24" xmlns="http://www.w3.org/2000/svg"><path d="M18.26 19.607V6.575c0-.891-.198-1.52-.608-1.923-.41-.407-1.049-.602-1.956-.602H9.087c-.894 0-1.532.202-1.95.619-.413.41-.614 1.035-.614 1.91v13.028c0 .897.198 1.532.611 1.932.407.4 1.046.592 1.953.592H15.7c.904 0 1.546-.192 1.953-.592.41-.4.609-1.035.609-1.932zM10.67 1.6c-.087.084-.104.279-.104.424v.534h3.658v-.534c0-.125-.014-.343-.101-.43-.091-.088-.313-.102-.437-.102h-2.578c-.155 0-.35.017-.437.108zm8.054 2c.706.7 1.05 1.67 1.05 2.975v13.032c0 1.317-.347 2.296-1.06 2.991-.706.69-1.694 1.026-3.018 1.026H9.087c-1.324 0-2.312-.337-3.018-1.026-.713-.699-1.059-1.677-1.059-2.995V6.575c0-1.288.343-2.256 1.049-2.958.71-.706 1.69-1.052 2.991-1.059v-.534c0-.619.182-1.116.545-1.476C9.961.185 10.469 0 11.101 0h2.578c.642 0 1.15.182 1.51.541.359.356.54.857.54 1.483v.534c1.315.007 2.296.346 2.995 1.042zm-3.048 7.008a.651.651 0 01.611.25.63.63 0 01.078.648l-3.5 7.976a.656.656 0 01-.736.377.648.648 0 01-.52-.635l.006-4.565-2.507.343a.636.636 0 01-.609-.246.641.641 0 01-.087-.642l3.284-7.859c.12-.289.43-.45.74-.386.305.06.524.33.524.639l-.057 4.484 2.773-.384z" fill="#5CB615" fill-rule="nonzero"/></svg>
